X: 1
T: Kilimarsko (Pajdu\vsko)
P: Order AA BB CC D EE AA BB
M: 5/8
K: G
"A"|: "All"cd de2 | ed c2B | c2 B2A | B2 B3 \
   |  cd de2 | ed c2B | c2 B2A | A2 A3 :|
   |: FG A2G | AB c2B | cd cBA | B2 B3 \
   |  FG A2G | AB c2B | cd cBA | A2 A3 :|
"B"|: G2 A3  | B2 B2G | AB c2E | cB A2G | B2 B2A \
   |  G2 A3  | B2 B2G | Bd c2E | cB A2G | A2 A3 :|
   |: cd ddc | cd cBG | A2 GAB | c2 c3 \
   |  cd ddc | cd cBG | A2 GAA | A2 A3 :|
K: Amix
"C"|: "^Gaida"dG d2c | cG c2B | BG B2A | AE ABc \
   |  dG d2c | cG c2B | BG B2A | AE A2A :|
K: G
   |:=cG B2A | cd A2A | cG B2A | _BG A2A \
   |  cG B2A | cd A2A | cG B2A | _BG A2A :|
K: A
"D"|: "^Gadulka"GA B2A | dA cEE | GA B2A | =cA BEE \
   |  GA B2A | dA cEE | GA B2A | =cA BEE :|
   |: dA c2A | BA ABc | de c2A | BA eAA | dA c2A | BA ABc | de c2A | BA AEA :|
   |: ed c2A | BA ABc | de c2A | BA eAA \
   |  ed c2A | BA ABc | de c2A | BA AEA :|
K: Amix
"E"|: "^Kaval"eA d2e | ce cBA | AB AGA | GA FEA \
   |  AB ede | ce cBA | AB G2A | F2- F3 :|
   |: AB GAA | AB E2A | AB G2A | FA FEA \
   |  AB GAA | AB E2A | AB G2A | F2- F3 :|
